!!!COM: Webern, Anton (Friedrich Wilhelm von)
!!!OTL: Passacaglia for Orchestra, op. 1
!!!OMV:
!!!example: 402
!!!work: Web-4
**kern	**dynam	**kern	**dynam	**kern	**dynam	**kern	**kern	**dynam	**kern	**dynam	**kern	**dynam	**kern	**dynam	**kern	**dynam	**kern	**dynam	**kern	**dynam	**kern	**dynam
*part11	*part11	*part10	*part10	*part9	*part9	*part8	*part8	*part8	*part7	*part7	*part6	*part6	*part5	*part5	*part4	*part4	*part3	*part3	*part2	*part2	*part1	*part1
*staff12	*	*staff11	*	*staff10	*	*staff9	*staff8	*	*staff7	*	*staff6	*	*staff5	*	*staff4	*	*staff3	*	*staff2	*	*staff1	*
*I"Violoncello	*	*I"Viola	*	*I"Violin II	*	*I"Harp	*	*	*I"Timpani	*	*I"Trumpet in Bb	*	*I"Horn in F	*	*I"Horn in F	*	*I"Bassoon	*	*I"Clarinet in Bb	*	*I"Flute	*
*I'Vc.	*	*I'Vla.	*	*I'Vln. II	*	*I'Hp.	*	*	*I'Timp.	*	*I'Tpt.	*	*I'Hn.	*	*I'Hn.	*	*I'Bsn.	*	*I'Cl.	*	*I'Fl.	*
*clefF4	*	*clefC3	*	*clefG2	*	*clefF4	*clefG2	*	*clefF4	*	*clefG2	*	*clefG2	*	*clefG2	*	*clefF4	*	*clefG2	*	*clefG2	*
*k[b-]	*	*k[b-]	*	*k[b-]	*	*k[b-]	*k[b-]	*	*	*	*k[b-]	*	*	*	*	*	*k[b-]	*	*k[b-]	*	*k[b-]	*
*F:	*	*F:	*	*F:	*	*F:	*F:	*	*	*	*F:	*	*	*	*	*	*F:	*	*F:	*	*F:	*
*M2/4	*	*M2/4	*	*M2/4	*	*M2/4	*M2/4	*	*M2/4	*	*M2/4	*	*M2/4	*	*M2/4	*	*M2/4	*	*M2/4	*	*M2/4	*
=86	=	=	=	=	=	=	=	=	=	=	=	=	=	=	=	=	=	=	=	=	=	=
4c#X	.	2r	.	4r	.	4c#X	2r	.	2r	.	6r	.	2r	.	2r	.	(2c#X	.	(2f 2a	ppp	8r	.
.	.	.	.	.	.	.	.	.	.	.	.	.	.	.	.	.	.	.	.	.	8dd~	pp
.	.	.	.	.	.	.	.	.	.	.	(6en	<	.	.	.	.	.	.	.	.	.	.
4r	.	.	.	4f 4a	ppp	4r	.	.	.	.	.	.	.	.	.	.	.	.	.	.	(8ddL	.
.	.	.	.	.	.	.	.	.	.	.	6fn	[[	.	.	.	.	.	.	.	.	.	.
.	.	.	.	.	.	.	.	.	.	.	.	.	.	.	.	.	.	.	.	.	8cc#XJ)	.
=87	=87	=87	=87	=87	=87	=87	=87	=87	=87	=87	=87	=87	=87	=87	=87	=87	=87	=87	=87	=87	=87	=87
6An	.	2r	.	2g-X 2b-	.	6A	2r	.	2r	.	4ff-X	[	2r	.	6r	.	6An	.	2g-X 2b-	.	(8cc#XL	<
.	.	.	.	.	.	.	.	.	.	.	.	.	.	.	.	.	.	.	.	.	8cccnJ	.
6G-X	.	.	.	.	.	6G-X	.	.	.	.	.	.	.	.	(6dn	<	6G-X	.	.	.	.	.
.	.	.	.	.	.	.	.	.	.	.	4ee-X)	[[	.	.	.	.	.	.	.	.	8bbnL	[
6F	>	.	.	.	.	6F	.	>	.	.	.	.	.	.	6e-X	.	6F	>	.	.	.	.
.	.	.	.	.	.	.	.	.	.	.	.	.	.	.	.	.	.	.	.	.	8bb-XJ)	[
=88	=88	=88	=88	=88	=88	=88	=88	=88	=88	=88	=88	=88	=88	=88	=88	=88	=88	=88	=88	=88	=88	=88
4En	.	2A-X 2c	ppp	4a-X 4cc	.	4En	2r	.	2r	.	6r	[	(2A-X 2c-X	ppp	4ddn	.	4En	.	4a-X) 4cc	.	8r	.
.	.	.	.	.	.	.	.	.	.	.	.	.	.	.	.	.	.	.	.	.	8aa~	.
.	.	.	.	.	.	.	.	.	.	.	(6gn	<	.	.	.	.	.	.	.	.	.	.
4BB-X	]]	.	.	4r	.	4BB-	.	.	.	.	.	.	.	.	4ccn)	[[	[4BB-)	]]	4r	.	(8aaL	.
.	.	.	.	.	.	.	.	.	.	.	6a-X	.	.	.	.	.	.	.	.	.	.	.
.	.	.	.	.	.	.	.	.	.	.	.	.	.	.	.	.	.	.	.	.	8aa-XJ)	.
=89	=89	=89	=89	=89	=89	=89	=89	=89	=89	=89	=89	=89	=89	=89	=89	=89	=89	=89	=89	=89	=89	=89
6r	]	2B-X 2d-X	]]	2r	.	6r	2r	]	2r	.	4aa-X	.	2B-X) 2d-X	]]	6r	[	6BB-]	]	2r	.	(8aa-XL	<
.	.	.	.	.	.	.	.	.	.	.	.	.	.	.	.	.	.	.	.	.	8gggJ	.
6C	<	.	.	.	.	6C	.	<	.	.	.	.	.	.	(6en	<	(6C	<	.	.	.	.
.	.	.	.	.	.	.	.	.	.	.	4ggn)	[[	.	.	.	.	.	.	.	.	8ggg-XL	[
6D-X	.	.	.	.	.	6D-X	.	.	.	.	.	.	.	.	6f	.	6D-X	.	.	.	.	.
.	.	.	.	.	.	.	.	.	.	.	.	.	.	.	.	.	.	.	.	.	8fffJ)	[[
=90	=90	=90	=90	=90	=90	=90	=90	=90	=90	=90	=90	=90	=90	=90	=90	=90	=90	=90	=90	=90	=90	=90
4cn	.	2r	]	2e 2a-X	ppp	4cn	2r	.	2r	.	6r	[	2r	]	4ee-X	[	4c	.	(2en 2a-X	>	8r	[
.	.	.	.	.	.	.	.	.	.	.	.	.	.	.	.	.	.	.	.	.	8fff~	ppp
.	.	.	.	.	.	.	.	.	.	.	(6c#X	<	.	.	.	.	.	.	.	.	.	.
4B-X	[	.	.	.	.	4B-X	.	.	.	.	.	.	.	.	4dd-X)	]]	4B-X	[	.	.	(8fffL	>
.	.	.	.	.	.	.	.	.	.	.	6dn	.	.	.	.	.	.	.	.	.	.	.
.	.	.	.	.	.	.	.	.	.	.	.	.	.	.	.	.	.	.	.	.	8eeeJ)	]]
=91	=91	=91	=91	=91	=91	=91	=91	=91	=91	=91	=91	=91	=91	=91	=91	=91	=91	=91	=91	=91	=91	=91
6A	>	2r	.	2g	]]	6A	2r	[	2r	.	4dd	[	2r	.	6r	]	6An	>	4g)	.	8r	]
.	.	.	.	.	.	.	.	.	.	.	.	.	.	.	.	.	.	.	.	.	8bb-X~	>
6F	.	.	.	.	.	6F	.	.	.	.	.	.	.	.	(6G#X	<	6F	.	.	.	.	.
.	.	.	.	.	.	.	.	.	.	.	4dd-X)	]]	.	.	.	.	.	.	4r	]	(8bb-L	.
6D#X	]]	.	.	.	.	6D#X	.	[[	.	.	.	.	.	.	6An	.	6D#X	.	.	.	.	.
.	.	.	.	.	.	.	.	.	.	.	.	.	.	.	.	.	.	.	.	.	8aaJ)	]]
=92	=92	=92	=92	=92	=92	=92	=92	=92	=92	=92	=92	=92	=92	=92	=92	=92	=92	=92	=92	=92	=92	=92
4E	]	2r;	.	2r;	]	4E 4B- 4dn	2r;	[	2Et;	]]	(4cc-X	]	2r;	.	4a-X	>	4E)	.	2r;	.	8r	]
.	.	.	.	.	.	.	.	.	.	.	.	.	.	.	.	.	.	.	.	.	8dd~	pppp
4r;	.	.	.	.	.	4r;	.	.	.	.	4b-X;)	]	.	.	4gn;)	]]	4r;	]	.	.	(8ddL	>
.	.	.	.	.	.	.	.	.	.	.	.	.	.	.	.	.	.	.	.	.	8cc#X;J)	]]
==	==	==	==	==	==	==	==	==	==	==	==	==	==	==	==	==	==	==	==	==	==	==
*-	*-	*-	*-	*-	*-	*-	*-	*-	*-	*-	*-	*-	*-	*-	*-	*-	*-	*-	*-	*-	*-	*-
!!!CDT: 1883/12/03-1945/09/15
!!!CBL: Vienna, Austria
!!!CDL: Mittersill, Austria
!!!CNT: Austrian
!!!AGN: Orchestral; Symphonic
!!!MCN: Webern, Anton
!!!MDT: 1908/11/04
!!!MGN: Tonkünstlerverein Orchestra
!!!MLC: Vienna, Austria
!!!MPD: 1908
!!!MPN:
!!!ODT: 1908
!!!PDT: 1922
!!!excerpt-start-measure: 86
!!!excerpt-end-measure: 91
!!!excerpt-start-time: 3:08
!!!excerpt-end-time: 3:24
!!!EEV: 2020/01/17
!!!system-decoration: [(s1,s2,s3)][(s4,s5,s6)][(s7)]{(s8,s9)}[(s10,s11,s12)]
!!!ONB: Converted from MusicXML on 2020/01/17
